shader_type spatial;

//uniform sampler2D screen_texture:hint_screen_texture, repeat_disable, filter_nearest;

void vertex() {
	// COLOR = texture(screen_texture) TODO
}

void fragment() {
	// Called for every pixel the material is visible on.
}

//void light() {
	// Called for every pixel for every light affecting the material.
	// Uncomment to replace the default light processing function with this one.
//}
